assets/svg/1F361.svg

<svg xmlns="http://www.w3.org/2000/svg" viewBox="0 0 64 64" enable-background="new 0 0 64 64"><path fill="#929497" d="m63.05 56.02c1.057.997.978 2.792-.167 4.01l0 0c-1.149 1.222-2.937 1.402-3.995.413l-58.14-55.27c-1.059-.993-.981-2.786.163-4l0 0c1.152-1.224 2.938-1.404 3.993-.411l58.15 55.26"/><path fill="#b03e81" d="m27.07 7.33c2.1 6.672-1.997 14.895-9.152 18.37-7.15 3.472-14.653.882-16.752-5.792-2.094-6.668 2-14.893 9.154-18.366 7.155-3.474 14.652-.882 16.75 5.788"/><path fill="#962f72" d="m10.399 1.608c-5.262 2.556-8.871 7.681-9.577 12.866 2.732-1.864 5.94-3.159 9.323-3.591 7.427-.948 13.429 2.542 15.172 8.199 2.215-3.631 3.02-7.907 1.83-11.687-2.1-6.669-9.601-9.259-16.748-5.787"/><path fill="#fff" d="m6.162 19.677c-1.879-3.115-2.354-6.88-1.562-10.215-1.606 2.877-2.104 6.432-1.088 9.664 1.695 5.387 6.975 7.879 11.906 5.698-3.469.337-7.05-1.487-9.256-5.147"/><path fill="#d0d2d3" d="m43.02 22.276c2.385 6.525-1.408 14.847-8.471 18.584-7.06 3.739-14.72 1.479-17.1-5.05-2.381-6.527 1.412-14.847 8.476-18.586 7.06-3.738 14.72-1.477 17.1 5.05"/><path fill="#b6b6b7" d="m26 17.29c-5.195 2.75-8.621 7.977-9.123 13.146 2.677-1.959 5.857-3.373 9.246-3.94 7.441-1.247 13.621 1.965 15.61 7.501 2.086-3.69 2.722-7.961 1.372-11.657-2.383-6.53-10.04-8.788-17.11-5.05"/><path fill="#fff" d="m22.468 35.38c-2.02-3.01-2.647-6.726-1.987-10.06-1.499 2.918-1.858 6.464-.706 9.626 1.923 5.269 7.342 7.522 12.224 5.157-3.482.478-7.162-1.184-9.531-4.719"/><path fill="#00a551" d="m57.628 35.973c2.605 6.402-.939 14.794-7.923 18.739-6.985 3.945-14.76 1.951-17.369-4.449-2.607-6.402.939-14.791 7.923-18.741 6.983-3.944 14.76-1.952 17.369 4.451"/><path fill="#047d3f" d="m40.34 31.585c-5.139 2.902-8.413 8.205-8.751 13.357 2.629-2.036 5.78-3.547 9.172-4.221 7.441-1.483 13.769 1.503 15.949 6.934 1.975-3.733 2.473-7.996.995-11.621-2.609-6.404-10.384-8.395-17.365-4.449"/><path fill="#fff" d="m37.37 49.662c-2.128-2.925-2.877-6.589-2.322-9.928-1.411 2.948-1.661 6.479-.398 9.582 2.108 5.169 7.632 7.231 12.462 4.72-3.484.591-7.24-.94-9.742-4.374"/></svg>

<?xml version="1.0" encoding="UTF-8" standalone="no"?>
<!-- Generator: Adobe Illustrator 16.0.0, SVG Export Plug-In . SVG Version: 6.00 Build 0)  -->

<svg
   xmlns:dc="http://purl.org/dc/elements/1.1/"
   xmlns:cc="http://creativecommons.org/ns#"
   xmlns:rdf="http://www.w3.org/1999/02/22-rdf-syntax-ns#"
   xmlns:svg="http://www.w3.org/2000/svg"
   xmlns="http://www.w3.org/2000/svg"
   xmlns:sodipodi="http://sodipodi.sourceforge.net/DTD/sodipodi-0.dtd"
   xmlns:inkscape="http://www.inkscape.org/namespaces/inkscape"
   version="1.1"
   id="Layer_1"
   x="0px"
   y="0px"
   width="64px"
   height="64px"
   viewBox="0 0 64 64"
   enable-background="new 0 0 64 64"
   xml:space="preserve"
   inkscape:version="0.48.5 r10040"
   sodipodi:docname="1F361.svg"
   inkscape:export-filename="D:\TESTINGEMOJI\SVGTEST\1F361.png"
   inkscape:export-xdpi="90"
   inkscape:export-ydpi="90"><metadata
   id="metadata4909"><rdf:RDF><cc:Work
       rdf:about=""><dc:format>image/svg+xml</dc:format><dc:type
         rdf:resource="http://purl.org/dc/dcmitype/StillImage" /><dc:title></dc:title></cc:Work></rdf:RDF></metadata><defs
   id="defs4907" /><sodipodi:namedview
   pagecolor="#ffffff"
   bordercolor="#666666"
   borderopacity="1"
   objecttolerance="10"
   gridtolerance="10"
   guidetolerance="10"
   inkscape:pageopacity="0"
   inkscape:pageshadow="2"
   inkscape:window-width="640"
   inkscape:window-height="480"
   id="namedview4905"
   showgrid="false"
   inkscape:zoom="3.6875"
   inkscape:cx="32"
   inkscape:cy="32"
   inkscape:window-x="454"
   inkscape:window-y="341"
   inkscape:window-maximized="0"
   inkscape:current-layer="Layer_1" />
<g
   id="g4883">
	<path
   fill="#929497"
   d="M63.051,56.024c1.057,0.997,0.978,2.792-0.167,4.013l0,0c-1.149,1.222-2.937,1.402-3.995,0.413L0.747,5.181   c-1.059-0.993-0.981-2.786,0.163-4.005l0,0c1.152-1.224,2.938-1.404,3.993-0.411L63.051,56.024z"
   id="path4885" />
	<path
   fill="#B03E81"
   d="M27.074,7.33c2.1,6.672-1.997,14.895-9.152,18.37c-7.15,3.472-14.653,0.882-16.752-5.792   c-2.094-6.668,2.005-14.893,9.154-18.366C17.479-1.932,24.976,0.66,27.074,7.33z"
   id="path4887" />
	<path
   fill="#962F72"
   d="M10.399,1.608C5.137,4.164,1.528,9.289,0.822,14.474c2.732-1.864,5.94-3.159,9.323-3.591   c7.427-0.948,13.429,2.542,15.172,8.199c2.215-3.631,3.02-7.907,1.83-11.687C25.047,0.726,17.546-1.864,10.399,1.608z"
   id="path4889" />
	<path
   fill="#FFFFFF"
   d="M6.162,19.677c-1.879-3.115-2.354-6.88-1.562-10.215c-1.606,2.877-2.104,6.432-1.088,9.664   c1.695,5.387,6.975,7.879,11.906,5.698C11.949,25.161,8.369,23.337,6.162,19.677z"
   id="path4891" />
	<path
   fill="#D0D2D3"
   d="M43.025,22.276c2.385,6.525-1.408,14.847-8.471,18.584c-7.064,3.739-14.72,1.479-17.103-5.048   c-2.381-6.527,1.412-14.847,8.476-18.586C32.99,13.488,40.647,15.749,43.025,22.276z"
   id="path4893" />
	<path
   fill="#B6B6B7"
   d="M26.001,17.29c-5.195,2.75-8.621,7.977-9.123,13.146c2.677-1.959,5.857-3.373,9.246-3.94   c7.441-1.247,13.621,1.965,15.61,7.501c2.086-3.69,2.722-7.961,1.372-11.657C40.723,15.81,33.065,13.552,26.001,17.29z"
   id="path4895" />
	<path
   fill="#FFFFFF"
   d="M22.468,35.376c-2.019-3.012-2.647-6.726-1.987-10.064c-1.499,2.918-1.858,6.464-0.706,9.626   c1.923,5.269,7.342,7.522,12.224,5.157C28.517,40.573,24.837,38.911,22.468,35.376z"
   id="path4897" />
	<path
   fill="#00A551"
   d="M57.628,35.973c2.605,6.402-0.939,14.794-7.923,18.739c-6.985,3.945-14.76,1.951-17.369-4.449   c-2.607-6.402,0.939-14.791,7.923-18.741C47.242,27.578,55.019,29.57,57.628,35.973z"
   id="path4899" />
	<path
   fill="#047D3F"
   d="M40.338,31.585c-5.139,2.902-8.413,8.205-8.751,13.357c2.629-2.036,5.78-3.547,9.172-4.221   c7.441-1.483,13.769,1.503,15.949,6.934c1.975-3.733,2.473-7.996,0.995-11.621C55.094,29.63,47.319,27.639,40.338,31.585z"
   id="path4901" />
	<path
   fill="#FFFFFF"
   d="M37.366,49.662c-2.128-2.925-2.877-6.589-2.322-9.928c-1.411,2.948-1.661,6.479-0.398,9.582   c2.108,5.169,7.632,7.231,12.462,4.72C43.624,54.627,39.868,53.096,37.366,49.662z"
   id="path4903" />
</g>
</svg>
